X:76
T:An Old man is a Bed full of bones
R:Jig
M:6/8
L:1/8
Q:110
K:C
eeee2e|ecAc2c|d2cd2c|d2ef2d|eeee2e|ecAc2e|f2fe>dc|d2ef>ed||
eeee2e|ecAc2c|d2cd2c|d2ef2d|eeee2e|ecAc2e|f2f e>dc|d2e f>ed||

